X:11012
T:Kiss My Lady, Old
R:March
C:Trad.
O:England, Shropshire
Z:Paul Hardy's Session Tunebook 2015 (see www.paulhardy.net). Creative Commons cc by-nc-sa licenced.
M:4/4
L:1/4
Q:1/4=200
K:Gmaj
"G" DG GB|"C" cA Ac|"G" Bd "C" d/2c/2B/2A/2|"G" Gg dB|DG GB|"C" cA Ac|"G" Bd "C" d/2c/2B/2A/2|"G" GFG2:|
|:"G" G d Bd|"C" G e ce|G c Ac|"G" G d Bd|G g dB|"C" c e cA|"D7"B/2c/2d/2e/2 d/2c/2B/2A/2|"G" GG G2:|
|:"G" d>c Bc|dd dB|"C" c>B AB|cc cA|"G"B>c BA|GF Gg|"C" ed cB|"D" B2 A2:|
|:"C" cc/2c/2 cA|"G" BB/2B/2 BG|"C" cc cA|"G" BB BG|"C" e3d|ef "G" gd|"D7"c/2B/2A/2G/2 B/2A/2G/2F/2|"G"G4:|

